X:1
T: Hey! Jenny, Come Down to Jock
C:
R:Jig
Q:180
K:F
M:6/8
L:1/16
|:f2|F4F2 G2A2c2|d2c2A2 G4f2|F4F2 G2A2c2|d2c2d2 D4f2|
F4F2 G2A2c2|d2c2A2 G4f2|F4F2 G2A2c2|d2c2d2 D4:|
|:de|f2e2d2 g2f2e2|f2e2d2 c2d2e2|f2d2e2 g2f2e2|a2g2a2 d4de|
f2e2d2 g2f2e2|f2e2d2 c2d2e2|f2g2a2 c2A2F2|G4A2D4:|
